X: 10452
T: JENNY DANG THE WEAVER
%R: reel
B: "Edinburgh Repository of Music" v.1 p.45 #2
F: http://digital.nls.uk/special-collections-of-printed-music/pageturner.cfm?id=87776133
Z: 2015 John Chambers <jc:trillian.mit.edu>
M: C|
L: 1/8
K: D
f |\
d>A A/A/A AFAB | dA A/A/A f2ef |\
dB B/B/B BABd | A>Bde f2e :|
|: f |\
defd efge | defd {f}e2dB |\
d>efd eBgB | aA A/A/A f2e :|

%%sep 2 1 500
%%sep 1 1 500

